FlatUX/src/svg/LeapFrog - LeapPad-content.svg

<svg enable-background="new 0 0 256 256" viewBox="0 0 256 256" xmlns="http://www.w3.org/2000/svg"><path d="m128 52c-61.856 0-112 12.536-112 28v124h224v-124c0-15.464-50.144-28-112-28z" fill="#854b9c"/><path d="m60 67.416c0 1.253 1.134 2.191 2.366 1.963 18.874-3.488 41.649-5.379 65.634-5.379s46.76 1.891 65.634 5.38c1.232.228 2.366-.71 2.366-1.963v-.001c0-.964-.679-1.795-1.627-1.969-18.576-3.423-41.527-5.447-66.373-5.447s-47.797 2.024-66.373 5.447c-.948.174-1.627 1.005-1.627 1.969z" fill="#9259a2"/><circle cx="46" cy="78" fill="#223140" r="6"/><path d="m216 108h-6.011c-5.095 0-10.042-1.633-14.161-4.631-12.53-9.118-38.192-15.369-67.828-15.369s-55.298 6.251-67.827 15.369c-4.12 2.998-9.067 4.631-14.161 4.631h-6.012c-4.418 0-8 3.582-8 8v44c0 11.046 8.954 20 20 20h152c11.046 0 20-8.954 20-20v-44c0-4.418-3.582-8-8-8z" fill="#1b80bb"/></svg>

<svg xmlns="http://www.w3.org/2000/svg" viewBox="0 0 256 256"><path fill="#854b9c" d="M128 52C66.144 52 16 64.536 16 80v124h224V80c0-15.464-50.144-28-112-28"/><path fill="#9259a2" d="M60 67.416a1.997 1.997 0 0 0 2.366 1.963C81.24 65.891 104.015 64 128 64s46.76 1.891 65.634 5.38A1.997 1.997 0 0 0 196 67.417v-.001c0-.964-.679-1.795-1.627-1.969C175.797 62.024 152.846 60 128 60s-47.797 2.024-66.373 5.447A1.994 1.994 0 0 0 60 67.416"/><circle cx="46" cy="78" r="6" fill="#223140"/><path fill="#1b80bb" d="M216 108h-6.011a24.06 24.06 0 0 1-14.161-4.631C183.298 94.251 157.636 88 128 88s-55.298 6.251-67.827 15.369A24.06 24.06 0 0 1 46.012 108H40a8 8 0 0 0-8 8v44c0 11.046 8.954 20 20 20h152c11.046 0 20-8.954 20-20v-44a8 8 0 0 0-8-8"/></svg>
